!!!!SEGMENT: pl-sa--548-a-ix-28--010_anonim--kotylion.krn
!!!cenid: 18xx:433
!!!COM: Anonim
!!!COM-rismid: pe30004985
!!!CDT:
!!!CNT:
!!!OTL: Kotylion
!!!PDT:
!!!AGN:
!!!SMS-siglum: PL-SA
!!!SMS-shelfmark: 548/A IX 28
!!!SMS-shelfwork: 010 W
!!!SMS-variant:
!!!SMS-altvar:
!!!NIFC-rismid: 1001068961
!!!URL-scan: http://bc.bdsandomierz.pl/dlibra/publication/1440/edition/1408/content
!!!ONB-nifc: Str. 14 (s. 3) – str. 15 (s. 1)
**kern	**kern
*part1	*part1
*staff2	*staff1
*I"Pianoforte	*"Pianoforte
*I'P-no	*I'P-no
*Iempty	*Iempty
*clefF4	*clefG2
*k[f#]	*k[f#]
*G:	*G:
*M3/4	*M3/4
!	!LO:TX:a:t=P:problem:niepoprawne metrum w źródle
!LO:TX:a:t=P:problem:kaudy z prawej strony:global	!LO:TX:a:t=P:problem:kaudy z prawej strony:global
8r	8dd\
=1	=1
!LO:TX:a:t=P:problem:mixed beam	!
8GG/L	8ddL 8b\
8G\	16ddL 16b\
.	16eeJ 16cc\
8G\J	8ddJ 8b\
=2	=2
*rep	*
!LO:TX:a:t=P:problem:brak oznaczeń cyfrowych nad powtórzeniami	!
!LO:TX:a:t=P:problem:mixed beam	!
8GG/L	4gg 4b\
8G\	.
8G\J	8dd 8b\
*Xrep	*
=3	=3
*rep	*
!LO:TX:a:t=P:problem:mixed beam	!
8GG/L	8bL 8g\
8G\	16bL 16g\
.	16ccJ 16a\
8G\J	8bJ 8g\
*Xrep	*
=4	=4
*rep	*
!LO:TX:a:t=P:problem:mixed beam	!
8GG/L	4dd 4b\
8G\	.
8G\J	8b 8g\
*Xrep	*
=5	=5
8D\L	8aaL 8ff# 8dd\
8c 8A 8F#\	16aa\L
.	16gg#X\J
8cJ 8A 8F#\	8aa\J
=6	=6
*rep	*
8D\L	8ccc\L
8c 8A 8F#\	8aa\
8cJ 8A 8F#\	8ff#\J
*Xrep	*
=7	=7
*rep	*
8D\L	8dd\L
8c 8A 8F#\	8ee\
8cJ 8A 8F#\	8ff#\J
*Xrep	*
=8	=8
4ryy	4gg\
!!LO:LB:g=original
=||	=||
8ryy	8dd\
=9	=9
8D\L	8cccL 8aa\
8D\	8bb 8gg\
8D\J	8aaJ 8ff#\
=10	=10
!LO:TX:a:t=P:problem:mixed beam	!
8GG/L	8bbL 8dd 8b\
8G\	8aa 8cc\
8G\J	8ggJ 8b\
=11	=11
8D\L	8dd\L
8c 8A 8F#\	8ee\
8cJ 8A 8F#\	8ff#\J
=12	=12
!LO:TX:a:t=P:problem:mixed beam	!
8G/L 8GG/	8gg\L
8B\J 8G\ 8D\	8bb\
8B 8G 8D\	8dd\J
=13	=13
8DD/L	8cccL 8aa\
8D/	8bb 8gg\
8D/J	8aaJ 8ff#\
=14	=14
!LO:TX:a:t=P:problem:mixed beam	!
8GG/L	8bbL 8dd 8b\
8G\	8aa 8cc\
8G\J	8ggJ 8b\
=15	=15
8DL 8CC/	8aa\L
8c 8A 8F# 8D/	8ff#\
8cJ 8A 8F#/	8dd\J
=16	=16
4B 4G\	4gg\
!!LO:LB:g=original
=||	=||
8r	8dd\
=17	=17
8GL 8GG\	4bb 4gg\
8B 8G\	.
8dJ 8B\	8bb 8gg\
=18	=18
*rep	*
.	4qccc/ 4qaa/
8GL 8GG\	4bb 4gg\
8B 8G\	.
8dJ 8B\	8bb 8gg\
*Xrep	*
=19	=19
4.c 4.A 4.D\	8cccL 8aa\
.	8bb 8gg\
.	8cccJ 8aa\
=20	=20
*rep	*
4.c 4.A 4.D\	8aaL 8ff#\
.	8ddd 8bb\
.	8cccJ 8aa\
*Xrep	*
=21	=21
8GL 8GG\	4bb 4gg\
8B 8G\	.
8BJ 8G\	8bb 8gg\
=22	=22
*rep	*
.	8qccc/ 8qaa/
8GL 8GG\	4bb 4gg\
8B 8G\	.
8BJ 8G\	8bb 8gg\
*Xrep	*
=23	=23
4D 4DD/	8aaL 8cc\
.	8bb 8dd\
8D 8DD/	8aaJ 8cc\
=24	=24
4B 4G\	4gg 4b\
!!LO:PB:g=original
=||	=||
8r	8dd\
=25	=25
8D\L	8dd\L
8c 8A 8F#\	8ccc\
8cJ 8A 8F#\	8aa\J
=26	=26
8D\L	8dd\L
8B 8G\	8bb\
8BJ 8G\	8gg\J
=27	=27
8D\L	8dd\L
8c 8A 8F#\	8aa\
8cJ 8A 8F#\	8ff#\J
=28	=28
8D\L	16gg\LL
.	16ff#\
8B 8G\	16gg\
.	16bb\JJ
8BJ 8G\	8dd\
=29	=29
8D\L	8dd\L
8c 8A 8F#\	8ccc\
8cJ 8A 8F#\	8aa\J
=30	=30
8D\L	8dd\L
8B 8G\	8bb\
8BJ 8G\	8gg\J
=31	=31
8D\L	16dd\LL
.	16ee\
8c 8A\	16ff#\
.	16gg\
8cJ 8A\	16aa\
.	16ff#\JJ
=32	=32
4B 4G\	4gg\
==	==;>
*-	*-
!!!system-decoration: {(s1,s2)}
!!!RDF**kern: > = above
!!!RDF**kern: < = below
!!!EED: Mateusz Mrugas
!!!EST: 2020-11-23
!!!AIN: 1 empty
!!!ENC: Tomasz Grochalski
!!!END: 2020-06-15
